X: 1
T: Akuvalssi    [Gm]
C: Konsta Jylh\"a
D: Kaustisen Purppuripelimannit "Santerin Kaffilassa" 1988
M: 3/4
L: 1/8
K: Gm
|: D2 \
| "Gm"G3 B dg | "Bb"f3 e df | "Cm"e3 d cB | "D7"A4 G2 \
| "D7"^F3 G Ac | B4 A2 |1,3 "Gm"G3 A Bc | "D7"d4 :|2 "Gm"G6- | G4 :|4 "Gm"G6- | G2 ||
|: "(G7)"g2 g2 \
| "Cm"g2 c4- | c2 e2 g2 | "Gm"d6- | d2 d2 e2 \
| "F"f3 e d2 | e3 d c2 | "Bb"d6- | "(G7)"d2 g2 g2 \
| "Cm"g2 c4- | c2 e2 g2 | "Gm"d6- | d2 G2 A2 \
| "Gm"B2A2 G2 | "D7"^F4 A2 | "Gm"G6- | G2 :|
